logos/tv.tvpwarszawa.svg

<?xml version="1.0" encoding="UTF-8" standalone="no"?>
<!-- Created with Inkscape (http://www.inkscape.org/) -->

<svg
   xmlns:dc="http://purl.org/dc/elements/1.1/"
   xmlns:cc="http://creativecommons.org/ns#"
   xmlns:rdf="http://www.w3.org/1999/02/22-rdf-syntax-ns#"
   xmlns:svg="http://www.w3.org/2000/svg"
   xmlns="http://www.w3.org/2000/svg"
   xmlns:inkscape="http://www.inkscape.org/namespaces/inkscape"
   version="1.1"
   width="400pt"
   height="238pt"
   viewBox="0 0 400 238"
   id="svg2">
  <metadata
     id="metadata50">
    <rdf:RDF>
      <cc:Work
         rdf:about="">
        <dc:format>image/svg+xml</dc:format>
        <dc:type
           rdf:resource="http://purl.org/dc/dcmitype/StillImage" />
      </cc:Work>
    </rdf:RDF>
  </metadata>
  <defs
     id="defs48" />
  <path
     d="M 0,0 400,0 400,238 0,238 0,0 z"
     inkscape:connector-curvature="0"
     id="path4"
     style="fill:#00ab67" />
  <path
     d="m 89.84,23.3 c 73.28,-0.11 146.56,-0.04 219.84,-0.04 -0.03,32.12 0,64.23 -0.01,96.35 C 236.39,119.6 163.11,119.67 89.83,119.57 89.82,87.48 89.81,55.39 89.84,23.3 z"
     inkscape:connector-curvature="0"
     id="path6"
     style="fill:#fdffff" />
  <path
     d="m 94.76,27.54 c 22.28,-0.08 44.56,-0.02 66.84,-0.03 -0.02,29.24 0.07,58.48 -0.05,87.72 -20.2,0.05 -40.4,-0.04 -60.6,0.04 -2.09,0.01 -4.17,-0.21 -6.23,-0.48 0.1,-29.08 0,-58.17 0.04,-87.25 z"
     inkscape:connector-curvature="0"
     id="path8"
     style="fill:#00ab67" />
  <path
     d="m 166.58,27.52 c 22.21,0.01 44.42,-0.1 66.62,0.06 0.01,25.8 -0.01,51.6 0.01,77.4 0.11,3.44 0.01,6.89 -0.48,10.3 -22.04,-0.1 -44.08,0.01 -66.12,-0.06 -0.08,-29.23 -0.02,-58.47 -0.03,-87.7 z"
     inkscape:connector-curvature="0"
     id="path10"
     style="fill:#00ab67" />
  <path
     d="m 238.23,27.49 c 22.16,0.03 44.31,-0.01 66.47,0.03 -0.04,29.23 0.04,58.46 -0.04,87.7 -22.15,0.04 -44.3,0.01 -66.44,0.01 -0.13,-9.41 -0.03,-18.82 -0.07,-28.23 0.03,-12.66 -0.02,-25.32 0.03,-37.98 0.12,-7.18 -0.57,-14.35 0.05,-21.53 z"
     inkscape:connector-curvature="0"
     id="path12"
     style="fill:#00ab67" />
  <path
     d="m 172.63,41.3 c 4.37,-0.04 8.73,-0.06 13.1,0.02 4.65,10.95 9.69,21.73 14.18,32.74 4.16,-11.12 9.44,-21.8 14.03,-32.76 4.46,-0.05 8.92,-0.04 13.38,0.01 -9.12,20.74 -18.36,41.43 -27.44,62.19 -6.73,-14.86 -13.22,-29.82 -19.85,-44.73 -2.49,-5.81 -5.34,-11.48 -7.4,-17.47 z"
     inkscape:connector-curvature="0"
     id="path14"
     style="fill:#fdffff" />
  <path
     d="m 105.29,41.75 c 15.4,-0.02 30.8,0 46.2,-0.01 0.03,3.93 0.02,7.86 0.02,11.78 -5.63,0.03 -11.26,0.03 -16.89,0.04 -0.03,16.03 -0.01,32.05 -0.01,48.08 -4.28,0.02 -8.55,0.03 -12.82,-0.03 0,-16.02 0.02,-32.04 -0.01,-48.06 -5.5,0 -11,-0.01 -16.5,-0.01 -0.03,-3.93 -0.04,-7.86 0.01,-11.79 z"
     inkscape:connector-curvature="0"
     id="path16"
     style="fill:#fdffff" />
  <path
     d="m 252.43,101.64 c 0.02,-19.97 -0.05,-39.93 0.03,-59.89 8.08,0.35 16.39,-0.98 24.29,1.23 7.51,2.11 13.45,8.78 14.5,16.54 1.15,7.57 -2.44,15.6 -8.86,19.78 -5.2,3.53 -11.65,4.42 -17.8,4.27 0,6.03 -0.01,12.05 0.01,18.08 -4.06,0.01 -8.12,0 -12.17,-0.01 z"
     inkscape:connector-curvature="0"
     id="path18"
     style="fill:#fdffff" />
  <path
     d="m 264.47,53.52 c 3.82,0.13 7.97,-0.46 11.44,1.51 5.43,3.6 4.91,13.48 -1.21,16.12 -3.21,1.43 -6.8,1.16 -10.22,1.27 -0.03,-6.3 -0.03,-12.6 -0.01,-18.9 z"
     inkscape:connector-curvature="0"
     id="path20"
     style="fill:#00ab67" />
  <path
     d="m 66.34,156.96 c 3.8,7.71 5.89,16.13 9.42,23.96 2.35,-7.5 5.13,-14.85 7.84,-22.22 3.05,0.01 6.1,0.01 9.16,0.04 -5.88,14.48 -11.33,29.15 -17.67,43.44 -2.98,-7.98 -5.77,-16.04 -9,-23.92 -3.11,7.95 -5.64,16.13 -9.02,23.99 -4.99,-11.83 -9.63,-23.8 -14.56,-35.65 -1.08,-2.55 -1.98,-5.18 -2.73,-7.85 3.19,-0.05 6.38,-0.05 9.57,-0.04 2.68,7.39 5.66,14.69 7.88,22.23 3.49,-7.81 5.98,-16.02 9.11,-23.98 z"
     inkscape:connector-curvature="0"
     id="path22"
     style="fill:#fdffff" />
  <path
     d="m 85.27,200.28 c 7.28,-14.36 13.95,-29.04 21.6,-43.21 6.91,14.42 13.86,28.82 20.82,43.22 -3.41,0.01 -6.83,0.02 -10.25,0.07 -0.9,-1.98 -1.77,-3.97 -2.64,-5.97 -5.62,-0.21 -11.25,-0.11 -16.88,-0.09 -0.89,2 -1.8,4 -2.69,6.01 -3.32,0 -6.64,0 -9.96,-0.03 z"
     inkscape:connector-curvature="0"
     id="path24"
     style="fill:#fdffff" />
  <path
     d="m 258.36,157.13 c 5.13,9.25 9.27,19.02 14,28.48 2.31,4.87 4.89,9.61 6.78,14.67 -3.31,0.03 -6.62,0.03 -9.94,0.06 -0.95,-2.02 -1.88,-4.04 -2.82,-6.06 -5.56,-0.01 -11.11,-0.01 -16.66,0 -0.9,2 -1.8,4 -2.68,6 -3.32,0.03 -6.64,0.03 -9.95,0 6.99,-14.43 14.15,-28.78 21.27,-43.15 z"
     inkscape:connector-curvature="0"
     id="path26"
     style="fill:#fdffff" />
  <path
     d="m 290.07,180.82 c 3.18,-7.95 5.83,-16.1 8.98,-24.06 3.33,7.95 6.11,16.12 9.06,24.22 2.89,-7.39 5.11,-15.04 8.27,-22.33 2.91,0.04 5.81,0.06 8.72,0.1 -5.23,14.65 -11.42,28.95 -17.19,43.39 -3.32,-7.93 -6.2,-16.04 -9.07,-24.15 -3.14,8.02 -5.93,16.16 -8.96,24.22 -6.42,-14.28 -11.98,-28.94 -17.81,-43.47 3.32,-0.04 6.64,-0.04 9.96,0 2.65,7.37 5.34,14.73 8.04,22.08 z"
     inkscape:connector-curvature="0"
     id="path28"
     style="fill:#fdffff" />
  <path
     d="m 339.16,157.07 c 7.39,14.2 14.16,28.72 20.96,43.21 -3.4,0.03 -6.8,0.03 -10.2,0.02 -0.88,-2.01 -1.77,-4.01 -2.66,-6.02 -5.54,-0.01 -11.08,-0.01 -16.62,0 -1,2.03 -1.98,4.06 -3,6.08 -3.24,-0.05 -6.48,-0.06 -9.71,-0.08 6.98,-14.45 14.22,-28.78 21.23,-43.21 z"
     inkscape:connector-curvature="0"
     id="path30"
     style="fill:#fdffff" />
  <path
     d="m 172.96,159.95 c 5.75,-4 13.24,-2.59 19.39,-0.4 -0.02,3.17 -0.02,6.34 -0.04,9.52 -4.49,-2.33 -9.91,-5.39 -14.82,-2.28 0.28,1.47 0.03,3.28 1.35,4.32 4.75,3.76 11.16,5.4 14.84,10.48 4.1,5.93 1.43,15.05 -4.99,18.17 -5.97,3.16 -13.07,1.79 -19.18,-0.21 -0.13,-3.58 -0.44,-7.15 -0.87,-10.7 5.18,2.56 11.28,5.51 16.93,2.43 -0.01,-1.92 0.87,-4.42 -1.08,-5.69 -4.36,-3.48 -10.2,-5 -13.72,-9.53 -3.97,-4.72 -3.07,-12.71 2.19,-16.11 z"
     inkscape:connector-curvature="0"
     id="path32"
     style="fill:#fdffff" />
  <path
     d="m 132.53,200.29 c -0.04,-13.86 -0.05,-27.72 0.01,-41.57 7.36,0.32 15.23,-1.16 22.13,2.07 5.71,2.82 7.72,10.29 5.02,15.86 -1.31,2.72 -3.94,4.39 -6.31,6.08 4.29,5.77 8.32,11.72 12.52,17.55 -3.75,0.03 -7.5,0.02 -11.25,0.05 -4.22,-5.58 -7.52,-11.85 -12.2,-17.08 -0.52,5.69 0.17,11.43 -0.63,17.1 -3.1,-0.03 -6.19,-0.04 -9.29,-0.06 z"
     inkscape:connector-curvature="0"
     id="path34"
     style="fill:#fdffff" />
  <path
     d="m 201.76,158.73 c 10.83,-0.01 21.67,-0.08 32.51,0.03 -6.3,11.14 -13.49,21.75 -20.17,32.67 6.82,0.09 13.65,0.01 20.47,0.07 -0.53,2.97 -1.13,5.92 -1.87,8.85 -11.57,-0.1 -23.14,0.02 -34.7,-0.08 6.78,-10.94 13.67,-21.82 20.51,-32.73 -6.13,-0.04 -12.26,-0.01 -18.39,-0.05 0.5,-2.93 1.1,-5.84 1.64,-8.76 z"
     inkscape:connector-curvature="0"
     id="path36"
     style="fill:#fdffff" />
  <path
     d="m 142.25,166.23 c 3.07,0.28 6.87,-0.14 8.92,2.71 0.95,2.27 1.02,5.46 -1.09,7.14 -2.09,1.98 -5.21,1.45 -7.83,1.81 -0.04,-3.89 -0.04,-7.77 0,-11.66 z"
     inkscape:connector-curvature="0"
     id="path38"
     style="fill:#00ab67" />
  <path
     d="m 105.95,175.02 c 0.25,0.14 0.75,0.42 1,0.56 1.49,3.89 3.1,7.73 4.66,11.59 -3.54,0.04 -7.08,0.04 -10.62,-0.02 1.48,-4.11 3.22,-8.13 4.96,-12.13 z"
     inkscape:connector-curvature="0"
     id="path40"
     style="fill:#00ab67" />
  <path
     d="m 258.03,174.3 c 1.83,4.23 3.71,8.45 5.11,12.85 -3.44,0.07 -6.87,0.06 -10.31,-0.01 1.45,-4.39 3.37,-8.6 5.2,-12.84 z"
     inkscape:connector-curvature="0"
     id="path42"
     style="fill:#00ab67" />
  <path
     d="m 333.73,187.15 c 1.37,-4.43 3.29,-8.66 5.19,-12.89 1.75,4.28 3.62,8.52 5.14,12.9 -3.44,0.05 -6.89,0.06 -10.33,-0.01 z"
     inkscape:connector-curvature="0"
     id="path44"
     style="fill:#00ab67" />
</svg>

<?xml version="1.0" encoding="UTF-8" ?>
<!DOCTYPE svg PUBLIC "-//W3C//DTD SVG 1.1//EN" "http://www.w3.org/Graphics/SVG/1.1/DTD/svg11.dtd">
<svg width="400pt" height="238pt" viewBox="0 0 400 238" version="1.1" xmlns="http://www.w3.org/2000/svg">
<path fill="#00ab67" d=" M 0.00 0.00 L 400.00 0.00 L 400.00 238.00 L 0.00 238.00 L 0.00 0.00 Z" />
<path fill="#fdffff" d=" M 89.84 23.30 C 163.12 23.19 236.40 23.26 309.68 23.26 C 309.65 55.38 309.68 87.49 309.67 119.61 C 236.39 119.60 163.11 119.67 89.83 119.57 C 89.82 87.48 89.81 55.39 89.84 23.30 Z" />
<path fill="#00ab67" d=" M 94.76 27.54 C 117.04 27.46 139.32 27.52 161.60 27.51 C 161.58 56.75 161.67 85.99 161.55 115.23 C 141.35 115.28 121.15 115.19 100.95 115.27 C 98.86 115.28 96.78 115.06 94.72 114.79 C 94.82 85.71 94.72 56.62 94.76 27.54 Z" />
<path fill="#00ab67" d=" M 166.58 27.52 C 188.79 27.53 211.00 27.42 233.20 27.58 C 233.21 53.38 233.19 79.18 233.21 104.98 C 233.32 108.42 233.22 111.87 232.73 115.28 C 210.69 115.18 188.65 115.29 166.61 115.22 C 166.53 85.99 166.59 56.75 166.58 27.52 Z" />
<path fill="#00ab67" d=" M 238.23 27.49 C 260.39 27.52 282.54 27.48 304.70 27.52 C 304.66 56.75 304.74 85.98 304.66 115.22 C 282.51 115.26 260.36 115.23 238.22 115.23 C 238.09 105.82 238.19 96.41 238.15 87.00 C 238.18 74.34 238.13 61.68 238.18 49.02 C 238.30 41.84 237.61 34.67 238.23 27.49 Z" />
<path fill="#fdffff" d=" M 172.63 41.30 C 177.00 41.26 181.36 41.24 185.73 41.32 C 190.38 52.27 195.42 63.05 199.91 74.06 C 204.07 62.94 209.35 52.26 213.94 41.30 C 218.40 41.25 222.86 41.26 227.32 41.31 C 218.20 62.05 208.96 82.74 199.88 103.50 C 193.15 88.64 186.66 73.68 180.03 58.77 C 177.54 52.96 174.69 47.29 172.63 41.30 Z" />
<path fill="#fdffff" d=" M 105.29 41.75 C 120.69 41.73 136.09 41.75 151.49 41.74 C 151.52 45.67 151.51 49.60 151.51 53.52 C 145.88 53.55 140.25 53.55 134.62 53.56 C 134.59 69.59 134.61 85.61 134.61 101.64 C 130.33 101.66 126.06 101.67 121.79 101.61 C 121.79 85.59 121.81 69.57 121.78 53.55 C 116.28 53.55 110.78 53.54 105.28 53.54 C 105.25 49.61 105.24 45.68 105.29 41.75 Z" />
<path fill="#fdffff" d=" M 252.43 101.64 C 252.45 81.67 252.38 61.71 252.46 41.75 C 260.54 42.10 268.85 40.77 276.75 42.98 C 284.26 45.09 290.20 51.76 291.25 59.52 C 292.40 67.09 288.81 75.12 282.39 79.30 C 277.19 82.83 270.74 83.72 264.59 83.57 C 264.59 89.60 264.58 95.62 264.60 101.65 C 260.54 101.66 256.48 101.65 252.43 101.64 Z" />
<path fill="#00ab67" d=" M 264.47 53.52 C 268.29 53.65 272.44 53.06 275.91 55.03 C 281.34 58.63 280.82 68.51 274.70 71.15 C 271.49 72.58 267.90 72.31 264.48 72.42 C 264.45 66.12 264.45 59.82 264.47 53.52 Z" />
<path fill="#fdffff" d=" M 66.34 156.96 C 70.14 164.67 72.23 173.09 75.76 180.92 C 78.11 173.42 80.89 166.07 83.60 158.70 C 86.65 158.71 89.70 158.71 92.76 158.74 C 86.88 173.22 81.43 187.89 75.09 202.18 C 72.11 194.20 69.32 186.14 66.09 178.26 C 62.98 186.21 60.45 194.39 57.07 202.25 C 52.08 190.42 47.44 178.45 42.51 166.60 C 41.43 164.05 40.53 161.42 39.78 158.75 C 42.97 158.70 46.16 158.70 49.35 158.71 C 52.03 166.10 55.01 173.40 57.23 180.94 C 60.72 173.13 63.21 164.92 66.34 156.96 Z" />
<path fill="#fdffff" d=" M 85.27 200.28 C 92.55 185.92 99.22 171.24 106.87 157.07 C 113.78 171.49 120.73 185.89 127.69 200.29 C 124.28 200.30 120.86 200.31 117.44 200.36 C 116.54 198.38 115.67 196.39 114.80 194.39 C 109.18 194.18 103.55 194.28 97.92 194.30 C 97.03 196.30 96.12 198.30 95.23 200.31 C 91.91 200.31 88.59 200.31 85.27 200.28 Z" />
<path fill="#fdffff" d=" M 258.36 157.13 C 263.49 166.38 267.63 176.15 272.36 185.61 C 274.67 190.48 277.25 195.22 279.14 200.28 C 275.83 200.31 272.52 200.31 269.20 200.34 C 268.25 198.32 267.32 196.30 266.38 194.28 C 260.82 194.27 255.27 194.27 249.72 194.28 C 248.82 196.28 247.92 198.28 247.04 200.28 C 243.72 200.31 240.40 200.31 237.09 200.28 C 244.08 185.85 251.24 171.50 258.36 157.13 Z" />
<path fill="#fdffff" d=" M 290.07 180.82 C 293.25 172.87 295.90 164.72 299.05 156.76 C 302.38 164.71 305.16 172.88 308.11 180.98 C 311.00 173.59 313.22 165.94 316.38 158.65 C 319.29 158.69 322.19 158.71 325.10 158.75 C 319.87 173.40 313.68 187.70 307.91 202.14 C 304.59 194.21 301.71 186.10 298.84 177.99 C 295.70 186.01 292.91 194.15 289.88 202.21 C 283.46 187.93 277.90 173.27 272.07 158.74 C 275.39 158.70 278.71 158.70 282.03 158.74 C 284.68 166.11 287.37 173.47 290.07 180.82 Z" />
<path fill="#fdffff" d=" M 339.16 157.07 C 346.55 171.27 353.32 185.79 360.12 200.28 C 356.72 200.31 353.32 200.31 349.92 200.30 C 349.04 198.29 348.15 196.29 347.26 194.28 C 341.72 194.27 336.18 194.27 330.64 194.28 C 329.64 196.31 328.66 198.34 327.64 200.36 C 324.40 200.31 321.16 200.30 317.93 200.28 C 324.91 185.83 332.15 171.50 339.16 157.07 Z" />
<path fill="#fdffff" d=" M 172.96 159.95 C 178.71 155.95 186.20 157.36 192.35 159.55 C 192.33 162.72 192.33 165.89 192.31 169.07 C 187.82 166.74 182.40 163.68 177.49 166.79 C 177.77 168.26 177.52 170.07 178.84 171.11 C 183.59 174.87 190.00 176.51 193.68 181.59 C 197.78 187.52 195.11 196.64 188.69 199.76 C 182.72 202.92 175.62 201.55 169.51 199.55 C 169.38 195.97 169.07 192.40 168.64 188.85 C 173.82 191.41 179.92 194.36 185.57 191.28 C 185.56 189.36 186.44 186.86 184.49 185.59 C 180.13 182.11 174.29 180.59 170.77 176.06 C 166.80 171.34 167.70 163.35 172.96 159.95 Z" />
<path fill="#fdffff" d=" M 132.53 200.29 C 132.49 186.43 132.48 172.57 132.54 158.72 C 139.90 159.04 147.77 157.56 154.67 160.79 C 160.38 163.61 162.39 171.08 159.69 176.65 C 158.38 179.37 155.75 181.04 153.38 182.73 C 157.67 188.50 161.70 194.45 165.90 200.28 C 162.15 200.31 158.40 200.30 154.65 200.33 C 150.43 194.75 147.13 188.48 142.45 183.25 C 141.93 188.94 142.62 194.68 141.82 200.35 C 138.72 200.32 135.63 200.31 132.53 200.29 Z" />
<path fill="#fdffff" d=" M 201.76 158.73 C 212.59 158.72 223.43 158.65 234.27 158.76 C 227.97 169.90 220.78 180.51 214.10 191.43 C 220.92 191.52 227.75 191.44 234.57 191.50 C 234.04 194.47 233.44 197.42 232.70 200.35 C 221.13 200.25 209.56 200.37 198.00 200.27 C 204.78 189.33 211.67 178.45 218.51 167.54 C 212.38 167.50 206.25 167.53 200.12 167.49 C 200.62 164.56 201.22 161.65 201.76 158.73 Z" />
<path fill="#00ab67" d=" M 142.25 166.23 C 145.32 166.51 149.12 166.09 151.17 168.94 C 152.12 171.21 152.19 174.40 150.08 176.08 C 147.99 178.06 144.87 177.53 142.25 177.89 C 142.21 174.00 142.21 170.12 142.25 166.23 Z" />
<path fill="#00ab67" d=" M 105.95 175.02 C 106.20 175.16 106.70 175.44 106.95 175.58 C 108.44 179.47 110.05 183.31 111.61 187.17 C 108.07 187.21 104.53 187.21 100.99 187.15 C 102.47 183.04 104.21 179.02 105.95 175.02 Z" />
<path fill="#00ab67" d=" M 258.03 174.30 C 259.86 178.53 261.74 182.75 263.14 187.15 C 259.70 187.22 256.27 187.21 252.83 187.14 C 254.28 182.75 256.20 178.54 258.03 174.30 Z" />
<path fill="#00ab67" d=" M 333.73 187.15 C 335.10 182.72 337.02 178.49 338.92 174.26 C 340.67 178.54 342.54 182.78 344.06 187.16 C 340.62 187.21 337.17 187.22 333.73 187.15 Z" />
</svg>
